X:1
T:A Division upon a Ground
T:A Division upon a Ground
T:John Banister
T:by Mutopia-2009/02/22-94 - Public Domain
T:by Mutopia-2009/02/22-94 - Public Domain
T:by Mutopia-2009/02/22-94 - Public Domain
C:John Banister
Z:by Mutopia-2009/02/22-94 - Public Domain
L:1/8
Q:1/4=110
M:3/4
K:F
V:1 treble nm="Violin" snm="Vln."
V:1
 F2 c4 | c3 c de | f2 f3 e | e3 e f2 | g2 a2 b2 | c3 c de | f2 f3 e :: f3 f g2 | a3 a b2 | %9
 g3 g a2 | f>e f2 g2 | e3 d c2 | d2 e2 f2 | c3 B A2 | B>A G>d c>B | A3 G F2 :: F>E F>G A>=B | %17
 c>B c>d e>c | f>e d>e f>g | e>f e>(d c2) | g>f g>a b>e | f>g f>e d>g | e2 f2 f>e | f2 f3 g :: %24
 a>g a>b c'>a | b>a g>f e>a | f>g f>e d>g | e>f e>d c>f | d>c d>e f>d | c>d c>B A>B | B>A G>d c>B | %31
 A3 G F2 :: F2 A3 B | c2 ^c3 c | d2 e2 f2 | e2 ^f3 f | g2 a2 b2 | c'2 a3 a | b2 g2 f2 | f3 c g2 :: %40
 a2 f>g a2 | g2 e2 f>g | f2 d>e f2 | e3 d c2 | d2 d>e f>d | c>dc>B A2 | B>A G>d c2 | A3 G F2 :: %48
 F2 c4 | c3 B c2 | B3 e f2 | e3 d c2 | d2 f4 | f3 e f2 | e3 a b2 | a3 g f2 :: a3 b a2 | g3 f e2 | %58
 f3 d g2 | e3 d c2 | d3 e f2 | c3 B A2 | B3 G c2 | A3 G F2 :: A3 GAB | c2 A>c d>e | f3 d g2 | %67
 e3 e ^f2 | g3 gab | c'2 a3 b | g>d e3 f | f6 :: a6 | a6 | f6 | e6 | d6 | c6 | B2 B3 A | A6 :: %80
 F>E F>GA>B | c>G A>E F>G | F>E D>A B>A | G>FE>D C2 | d>c d>ef>g | e>dc>B A>B | B>A G>f e>d | %87
 c>BA>G F2 :: a>g a>b a>b | g>f g>ag>a | f>e f>g d>f | e>f e>d c>f | d>c d>e f>d | c>d c>BA>B | %94
 B>AB>G d>e | c3 (B A2) :: A>G A>BA>B | G>F G>AG>A | F>EF>G D>F | E>FE>D C>F | D>CD>E F>D | %101
 C>D C>B, A,>B, | B,>A,G,>A,B,>C | A,3 (G, A,2) :: c(A/B/) cGAG | G(E/F/) GAFE | %106
 FD/E/ F/G/A/B/ c/d/e/f/ | g/a/g/f/ e/f/e/d/ c2 | g(g/a/) ba bd | c(d/c/) Bc A(f/e/) | f g2 f f>e | %111
 f4 g2 :: a(f/a/) afba | g(e/f/) gcag | f/e/d/c/ =Bgdf | e/f/e/d/ cgef | %116
 d/c/d/e/ f/e/f/g/ f/e/f/d/ | c/B/c/d/ c/d/c/B/ A/B/c/A/ | B/c/B/A/ G/F/G/A/ B/A/B/c/ | %119
 A>BA>G F2 :: a/g/a/b/ a/b/a/g/ a/g/a/f/ | g/f/g/a/ g/a/g/f/ e/f/g/e/ | %122
 f/e/f/g/ f/g/f/e/ d/e/f/e/ | e/f/e/d/ c/B/c/d/ e/d/e/c/ | d/c/d/e/ f/e/f/g/ f/e/f/d/ | %125
 c/B/c/d/ c/d/c/B/ A/B/c/A/ | B/A/B/c/ B/c/B/A/ G/A/B/c/ | A3 G F2 :: c6 | ^c6 | d>a b2 b2 | %131
 b3 b a2 | a3 a g2 | g3 g f2 | f2 f3 e | f6 :: a2 b4 | g2 a4 | f2 g4 | e4 f2 | d3 d e2 | c3 c d2 | %142
 B2 B3 A | A6 :: A>B B3 B | c2 d2 e2 | f2 e2 f2 | e2 ^f3 f | g2 a2 b2 | c3 b a2 | g2 g3 f | %151
 !fermata!f6 :| %152

